X:1
T:Alankaar 4 — Quadruples
C:Exercise
M:none
L:1/4
Q:1/4=90
K:C
% Each scale degree repeated 4× ascending then descending.
CCCC DDDD | EEEE FFFF | GGGG AAAA | BBBB cccc | cccc BBBB | AAAA GGGG | FFFF EEEE | DDDD CCCC |
